X: 35037
T: Rollicking Skipper, The
R: jig
M: 6/8
K: Gmajor
|:e2d edB|AGA G2A|BdB AGA|BAA A2d|
efg fdB|AGA G2A|BdB AGA|BGG G2d:|
|:e2d e2d|e2g aed|eaa a2g|aba age|
dgg dgg|egg aed|ege dBA|BGG G2d:|

